X:263
T:Longuita
Z:Fernando Formigo
Z:Jack Campin, http://www.campin.me.uk/
F:Jack Campin's Nine-Note Tunebook
% last edit 03-02-2013
S:a PDF book "Andean Melodies" off the web
G:Ecuadorian "sanjuanito" quena/charango tune
N:there are many versions of this on YouTube
M:2/4
L:1/16
Q:1/4=96
K:C
cA2E|A2A2 cA2E|A4 cA2E|A2A2 cA2E|A4
cA2c|G2G2 EG2D|C4 cA2c|G2G2 EG2D|C4
CEGc|G2G2 EG2D|C4 CEGc|G2G2 EG2D|C4
AA2A|A2A2 cc2d|A4 Ad2c|A2A2 cc2d|A4
cA2c|G2G2 EG2D|C4 cA2c|G2G2 EG2D|C4
CEGc|G2G2 EG2D|C4 CEGc|G2G2 EG2D|C4|]

